d1
$ fast 1
$ struct bizy
$ n (fromIntegral <$> markovPat 64 0 [[0.3, 0.4, 0.3], [0.3, 0, 0.7], [0.7, 0.3, 0]])
# s "[sn,bd]"

hush

--
d1
$ fast 4
$ n (markovPat 64 0 [[0.3, 0.4, 0.3], [0.3, 0, 0.7], [0.7, 0.3, 0]])
# s "arpy"